images/backgrounfd-line1.svg

<svg xmlns="http://www.w3.org/2000/svg" width="699" height="651" fill="none"><g stroke="#96A9C6" clip-rule="evenodd"><path d="M341.639 33.325c-75.703-23.693-153.543-63.213-233.235 8.97-79.693 72.182-129.794 135.414-97.44 217.227 32.354 81.814 164.422 30.855 202.794 103.977 38.373 73.122-45.941 139.485-9.591 204.563 36.349 65.078 64.299 106.787 181.115 65.409 116.816-41.379 106.045-146.664 194.878-208.318 88.833-61.654 184.944-153.953 53.046-318.647-131.897-164.694-215.865-49.487-291.567-73.18Z"/><path d="M351.105 71.249c-61.583-19.24-124.905-51.33-189.734 7.283-64.828 58.614-105.585 109.959-79.266 176.393 26.32 66.434 133.755 25.055 164.971 84.431 31.216 59.376-37.372 113.265-7.802 166.109 29.569 52.845 52.306 86.713 147.334 53.113 95.028-33.6 86.267-119.094 158.531-169.158 72.264-50.064 150.449-125.012 43.152-258.747C480.994-3.062 412.688 90.489 351.105 71.249Z"/><path d="M368.812 96.417C318.85 80.72 267.478 54.535 214.883 102.36c-52.594 47.825-85.66 89.72-64.307 143.926 21.353 54.206 108.514 20.443 133.838 68.89 25.325 48.448-30.319 92.418-6.33 135.536 23.99 43.117 42.436 70.752 119.531 43.336 77.095-27.415 69.987-97.173 128.614-138.022 58.627-40.85 122.058-102.003 35.009-211.122-87.049-109.12-142.465-32.788-192.426-48.487Z"/><path d="M387.316 127.184c-40.295-12.596-81.728-33.603-124.147 4.768-42.419 38.371-69.087 71.984-51.865 115.475 17.221 43.491 87.518 16.402 107.943 55.273 20.425 38.87-24.453 74.148-5.105 108.743s34.225 56.767 96.404 34.77c62.179-21.996 56.446-77.965 103.73-110.739 47.284-32.774 98.442-81.839 28.236-169.388-70.207-87.55-114.901-26.307-155.196-38.902Z"/><path d="M392.083 147.046c-32.91-10.295-66.749-27.467-101.393 3.897-34.643 31.365-56.424 58.84-42.358 94.389 14.065 35.549 71.477 13.407 88.158 45.179 16.682 31.772-19.971 60.609-4.169 88.886 15.802 28.277 27.952 46.4 78.734 28.421 50.782-17.98 46.1-63.728 84.718-90.517 38.617-26.79 80.398-66.895 23.06-138.457-57.339-71.562-93.841-21.503-126.75-31.798Z"/><path d="M401.225 161.406c-26.718-8.36-54.191-22.305-82.318 3.165-28.127 25.47-45.81 47.781-34.39 76.649 11.419 28.868 58.031 10.887 71.574 36.688 13.544 25.801-16.214 49.217-3.385 72.18 12.829 22.963 22.694 37.68 63.923 23.08 41.229-14.601 37.428-51.751 68.78-73.505 31.353-21.755 65.275-54.323 18.723-112.435-46.553-58.112-76.188-17.462-102.907-25.822Z"/></g></svg>

<svg width="699" height="651" viewBox="0 0 699 651" fill="none" xmlns="http://www.w3.org/2000/svg">
<g id="Group 17">
<path id="Path 3" fill-rule="evenodd" clip-rule="evenodd" d="M341.639 33.3254C265.936 9.63167 188.096 -29.8875 108.404 42.2949C28.7114 114.477 -21.3904 177.709 10.9639 259.522C43.3182 341.336 175.386 290.377 213.758 363.499C252.131 436.621 167.817 502.984 204.167 568.062C240.516 633.14 268.466 674.849 385.282 633.471C502.098 592.092 491.327 486.807 580.16 425.153C668.993 363.499 765.104 271.2 633.206 106.506C501.309 -58.1879 417.341 57.0191 341.639 33.3254Z" stroke="#96A9C6"/>
<path id="Path 3 Copy" fill-rule="evenodd" clip-rule="evenodd" d="M351.105 71.2488C289.522 52.0091 226.2 19.9188 161.371 78.5323C96.5429 137.146 55.7857 188.491 82.1055 254.925C108.425 321.359 215.86 279.98 247.076 339.356C278.292 398.732 209.704 452.621 239.274 505.465C268.843 558.31 291.58 592.178 386.608 558.578C481.636 524.978 472.875 439.484 545.139 389.42C617.403 339.356 695.588 264.408 588.291 130.673C480.994 -3.06168 412.688 90.4885 351.105 71.2488Z" stroke="#96A9C6"/>
<path id="Path 3 Copy 2" fill-rule="evenodd" clip-rule="evenodd" d="M368.812 96.4174C318.85 80.719 267.478 54.5353 214.883 102.36C162.289 150.185 129.223 192.08 150.576 246.286C171.929 300.492 259.09 266.729 284.414 315.176C309.739 363.624 254.095 407.594 278.084 450.712C302.074 493.829 320.52 521.464 397.615 494.048C474.71 466.633 467.602 396.875 526.229 356.026C584.856 315.176 648.287 254.023 561.238 144.904C474.189 35.7846 418.773 112.116 368.812 96.4174Z" stroke="#96A9C6"/>
<path id="Path 3 Copy 5" fill-rule="evenodd" clip-rule="evenodd" d="M387.316 127.184C347.021 114.588 305.588 93.5806 263.169 131.952C220.75 170.323 194.082 203.936 211.304 247.427C228.525 290.918 298.822 263.829 319.247 302.7C339.672 341.57 294.794 376.848 314.142 411.443C333.49 446.038 348.367 468.21 410.546 446.213C472.725 424.217 466.992 368.248 514.276 335.474C561.56 302.7 612.718 253.635 542.512 166.086C472.305 78.5365 427.611 139.779 387.316 127.184Z" stroke="#96A9C6"/>
<path id="Path 3 Copy 4" fill-rule="evenodd" clip-rule="evenodd" d="M392.083 147.046C359.173 136.751 325.334 119.579 290.69 150.943C256.047 182.308 234.266 209.783 248.332 245.332C262.397 280.881 319.809 258.739 336.49 290.511C353.172 322.283 316.519 351.12 332.321 379.397C348.123 407.674 360.273 425.797 411.055 407.818C461.837 389.838 457.155 344.09 495.773 317.301C534.39 290.511 576.171 250.406 518.833 178.844C461.494 107.282 424.992 157.341 392.083 147.046Z" stroke="#96A9C6"/>
<path id="Path 3 Copy 3" fill-rule="evenodd" clip-rule="evenodd" d="M401.225 161.406C374.507 153.046 347.034 139.101 318.907 164.571C290.78 190.041 273.097 212.352 284.517 241.22C295.936 270.088 342.548 252.107 356.091 277.908C369.635 303.709 339.877 327.125 352.706 350.088C365.535 373.051 375.4 387.768 416.629 373.168C457.858 358.567 454.057 321.417 485.409 299.663C516.762 277.908 550.684 245.34 504.132 187.228C457.579 129.116 427.944 169.766 401.225 161.406Z" stroke="#96A9C6"/>
</g>
</svg>
